favicon-x2.svg

<svg width="256" height="256" viewBox="0 0 256 256" fill="none" xmlns="http://www.w3.org/2000/svg">
<path d="M167.855 107.275L186.986 126.406M186.986 107.275L167.855 126.406" stroke="#E1E1E1" stroke-width="3"/>
<path d="M127.445 18C165.098 18 198.439 37.3403 218.132 66.4062H204.521C175.261 66.4062 154.412 62.2933 140.754 75.9717C127.096 89.6501 129.594 110.026 129.594 120.609C129.594 131.193 129.785 140.869 126.406 150.898C123.027 160.928 120.724 163.119 112.058 170.029C103.391 176.94 79.4199 174.231 30 174.231C22.4171 159.282 18 145.811 18 127.885C18 67.1972 67.0003 18 127.445 18ZM108.143 131.682C107.367 131.682 106.702 131.955 106.148 132.5C105.594 133.045 105.322 133.702 105.33 134.469C105.322 135.253 105.595 135.917 106.148 136.463C106.702 137.008 107.367 137.281 108.143 137.281C108.645 137.281 109.106 137.157 109.523 136.91C109.949 136.654 110.29 136.314 110.546 135.888C110.81 135.462 110.947 134.989 110.955 134.469C110.947 133.702 110.661 133.045 110.099 132.5C109.545 131.955 108.893 131.682 108.143 131.682ZM118.584 131.682C117.808 131.682 117.144 131.955 116.59 132.5C116.036 133.045 115.763 133.702 115.771 134.469C115.763 135.253 116.036 135.917 116.59 136.463C117.144 137.008 117.808 137.281 118.584 137.281C119.087 137.281 119.547 137.157 119.965 136.91C120.391 136.654 120.732 136.314 120.987 135.888C121.252 135.462 121.388 134.989 121.396 134.469C121.388 133.702 121.103 133.045 120.54 132.5C119.986 131.955 119.334 131.682 118.584 131.682ZM41.0195 110.818V114.794H54.5195L41.0967 134.047V137H60.4775V133.024H46.9902L60.4004 113.771V110.818H41.0195ZM64.9385 117.363V121.199H74.7314V121.365L64.6064 134.06V137H80.7275V133.165H70.7559V132.999L80.3945 120.521V117.363H64.9385ZM85.1533 117.363V121.199H94.9463V121.365L84.8213 134.06V137H100.942V133.165H90.9707V132.999L100.609 120.521V117.363H85.1533Z" fill="#E1E1E1"/>
<circle cx="128" cy="128" r="105" stroke="#E1E1E1" stroke-width="10"/>
</svg>

<svg xmlns="http://www.w3.org/2000/svg" width="256" height="256" fill="none"><path stroke="#E1E1E1" stroke-width="3" d="m167.855 107.275 19.131 19.131m0-19.131-19.131 19.131"/><path fill="#E1E1E1" d="M127.445 18c37.653 0 70.994 19.34 90.687 48.406h-13.611c-29.26 0-50.109-4.113-63.767 9.566-13.658 13.678-11.16 34.054-11.16 44.637 0 10.584.191 20.26-3.188 30.289-3.379 10.03-5.682 12.221-14.348 19.131-8.667 6.911-32.638 4.202-82.058 4.202-7.583-14.949-12-28.42-12-46.346C18 67.197 67 18 127.445 18Zm-19.302 113.682c-.776 0-1.441.273-1.995.818a2.621 2.621 0 0 0-.818 1.969 2.655 2.655 0 0 0 .818 1.994 2.744 2.744 0 0 0 1.995.818 2.66 2.66 0 0 0 1.38-.371 2.944 2.944 0 0 0 1.023-1.022c.264-.426.401-.899.409-1.419-.008-.767-.294-1.424-.856-1.969-.554-.545-1.206-.818-1.956-.818Zm10.441 0c-.776 0-1.44.273-1.994.818a2.622 2.622 0 0 0-.819 1.969 2.652 2.652 0 0 0 .819 1.994 2.742 2.742 0 0 0 1.994.818c.503 0 .963-.124 1.381-.371a2.933 2.933 0 0 0 1.022-1.022c.265-.426.401-.899.409-1.419-.008-.767-.293-1.424-.856-1.969-.554-.545-1.206-.818-1.956-.818Zm-77.565-20.864v3.976h13.5l-13.422 19.253V137h19.38v-3.976H46.99l13.41-19.253v-2.953H41.02Zm23.92 6.545v3.836h9.792v.166L64.606 134.06V137h16.122v-3.835h-9.972v-.166l9.638-12.478v-3.158H64.938Zm20.214 0v3.836h9.793v.166L84.821 134.06V137h16.121v-3.835h-9.971v-.166l9.638-12.478v-3.158H85.153Z"/><circle cx="128" cy="128" r="105" stroke="#E1E1E1" stroke-width="10"/></svg>
